img/icon-eye-close.svg

<svg fill="none" height="24" viewBox="0 0 24 24" width="24" xmlns="http://www.w3.org/2000/svg"><path d="m22.2213 8.97713c-.3933-.38667-1.0266-.38-1.4146.01466-2.3387 2.38531-5.4667 3.69871-8.8067 3.69871-3.34001 0-6.46801-1.3134-8.80667-3.69871-.38667-.39333-1.02-.4-1.41467-.01466-.39467.38666-.40133 1.02-.01467 1.41467.68667.7 1.432 1.32 2.22534 1.8573l-1.17467 1.9214c-.288.4706-.14 1.0866.332 1.3746.16267.1.34267.1467.52133.1467.336 0 .66534-.1693.85334-.4787l1.208-1.976c.904.4414 1.85066.784 2.832 1.0254l-.444 2.2066c-.10934.5414.24266 1.0694.78266 1.1774.06667.0133.13334.02.19867.02.46667 0 .884-.328.97864-.8027l.452-2.2467c.4854.0494.976.076 1.4707.076s.9853-.0266 1.4707-.076l.452 2.2467c.096.4747.5133.8027.9786.8027.0654 0 .132-.0067.1987-.02.5413-.1094.892-.636.7827-1.1774l-.444-2.2066c.9813-.2414 1.928-.584 2.832-1.0254l1.208 1.976c.188.308.5173.4787.8533.4787.1787 0 .3587-.048.5213-.1467.472-.288.62-.904.332-1.3746l-1.1746-1.9214c.792-.5373 1.5386-1.156 2.2253-1.8573.3867-.39334.38-1.02801-.0147-1.41467z" fill="#fff"/></svg>

<svg width="24" height="24" viewBox="0 0 24 24" fill="none" xmlns="http://www.w3.org/2000/svg">
<path d="M22.2213 8.97713C21.828 8.59046 21.1947 8.59713 20.8067 8.99179C18.468 11.3771 15.34 12.6905 12 12.6905C8.65999 12.6905 5.53199 11.3771 3.19333 8.99179C2.80666 8.59846 2.17333 8.59179 1.77866 8.97713C1.38399 9.36379 1.37733 9.99713 1.76399 10.3918C2.45066 11.0918 3.19599 11.7118 3.98933 12.2491L2.81466 14.1705C2.52666 14.6411 2.67466 15.2571 3.14666 15.5451C3.30933 15.6451 3.48933 15.6918 3.66799 15.6918C4.00399 15.6918 4.33333 15.5225 4.52133 15.2131L5.72933 13.2371C6.63333 13.6785 7.57999 14.0211 8.56133 14.2625L8.11733 16.4691C8.00799 17.0105 8.35999 17.5385 8.89999 17.6465C8.96666 17.6598 9.03333 17.6665 9.09866 17.6665C9.56533 17.6665 9.98266 17.3385 10.0773 16.8638L10.5293 14.6171C11.0147 14.6665 11.5053 14.6931 12 14.6931C12.4947 14.6931 12.9853 14.6665 13.4707 14.6171L13.9227 16.8638C14.0187 17.3385 14.436 17.6665 14.9013 17.6665C14.9667 17.6665 15.0333 17.6598 15.1 17.6465C15.6413 17.5371 15.992 17.0105 15.8827 16.4691L15.4387 14.2625C16.42 14.0211 17.3667 13.6785 18.2707 13.2371L19.4787 15.2131C19.6667 15.5211 19.996 15.6918 20.332 15.6918C20.5107 15.6918 20.6907 15.6438 20.8533 15.5451C21.3253 15.2571 21.4733 14.6411 21.1853 14.1705L20.0107 12.2491C20.8027 11.7118 21.5493 11.0931 22.236 10.3918C22.6227 9.99846 22.616 9.36379 22.2213 8.97713Z" fill="white"/>
</svg>
